X:1
T:Brave Corsican, The
M:6/8
L:1/8
B: Charles and Samuel Thompson’s Compleat Collection of 200 Favourite Country Dances, vol. 3 (London, 1773)
S:John Rook manuscript (Cumbria, 1840)
Z:AK/Fiddler’s Companion
K:A
z \
| cEA cBA | DFB dcB | Eec BAG | A[Ee][Dd] [Cc][B,B][A,A] \
| [Cc]EA cBA | Bcd efg | agf ef^d | e3 e2 :|
|: e \
| ABc def | gec d2d | Bcd efg | af^d e2E \
| [Cc]EA DFd | Ece Fdf | edc BA^G | A3 A2 :|
